X: 142
M: 2/4
L: 1/8
K: G
|:\
|:\
d(gga) | gage | daab | abag |\
bage | dege | (e/f/g) dB | ABAG :|

